kora/actions/scalable/draw-geometry-show-measuring-info.svg

<svg xmlns="http://www.w3.org/2000/svg" style="fill-rule:evenodd;clip-rule:evenodd;stroke-linejoin:round;stroke-miterlimit:2" width="100%" height="100%" version="1.1" viewBox="0 0 16 16" xml:space="preserve">
 <defs>
  <style id="current-color-scheme" type="text/css">
   .ColorScheme-Text { color:#dfdfdf; } .ColorScheme-Highlight { color:#4285f4; } .ColorScheme-NeutralText { color:#ff9800; } .ColorScheme-PositiveText { color:#4caf50; } .ColorScheme-NegativeText { color:#f44336; }
  </style>
 </defs>
 <path style="fill:currentColor;" class="ColorScheme-Text" d="M9.996,10l0.004,5l-4,-4l-5,0l0,-10l14,0l0,10l-4,4l0.026,-5l2.974,0l0,-8l-12,0l0,8l7.996,0Zm-1.996,-2l1,0l0,1l-1,0l0,-1Zm3,-5c-1,0 -1,1 -1,1l0,4c0,1 1,1 1,1l1,0c1,0 1,-1 1,-1l0,-4c0,-1 -1,-1 -1,-1l-1,0Zm-6,0l0,1l1,0l0,5l1,0l0,-6l-2,0Zm6,1l1,0l0,4l-1,0l0,-4Z"/>
</svg>

<svg xmlns="http://www.w3.org/2000/svg" width="16" height="16" version="1.1">
 <defs>
  <style id="current-color-scheme" type="text/css">
   .ColorScheme-Text { color:#dfdfdf; } .ColorScheme-Highlight { color:#4285f4; }
  </style>
 </defs>
 <path style="fill:currentColor" class="ColorScheme-Text" d="M 8,8 H 9 V 9 H 8 Z M 11,3 C 10,3 10,4 10,4 V 8 C 10,9 11,9 11,9 H 12 C 13,9 13,8 13,8 V 4 C 13,3 12,3 12,3 Z M 11,4 H 12 V 8 H 11 Z M 5,3 V 4 H 6 V 9 H 7 V 3 Z M 1,1 V 11 H 6 L 10,15 V 11 H 11 V 15 L 15,11 V 1 Z M 2,2 H 14 V 10 H 2 Z"/>
</svg>
